!!!COM: Ravel, (Joseph) Maurice
!!!OTL: Gaspard de la nuit (Gaspard of the Night) for Piano
!!!OMV: II: Le Gibet (The Gibbet)
!!!example: 291
!!!work: Rav-17
**kern	**kern	**dynam
*part1	*part1	*part1
*staff2	*staff1	*
*I"Piano	*	*
*I'Pno.	*	*
*clefF4	*clefG2	*
*k[b-e-a-d-g-c-]	*k[b-e-a-d-g-c-]	*
*G-:	*G-:	*
*M4/4	*M4/4	*
*MM121	*MM121	*
=1	=1	=1
1r	4r	.
.	8r	.
.	[8B-'^ [8b-	pp
.	4B-'] 4b-]	.
.	[8B-'^L [8b-	.
.	8B-'J_ 8b-_	.
=2	=2	=2
1r	8B-] 8b-]	.
.	4b-~	.
.	[8B-'^ [8b-	.
.	4B-'] 4b-]	.
.	[8B-'^L [8b-	.
.	8B-'J_ 8b-_	.
=3	=3	=3
*	*^	*
([2EE- [2BB- [2F	8b-]	(2B-_ [2f	.
.	4b-~	.	.
.	[8b-'^	.	.
8EE-L] 8BB-] 8F]	4b-']	8B-L] 8f]	.
8CC-J 8GG- 8D-	.	8G-J 8d-	.
8.DD-L 8.AA- 8.E-	8B-'^L 8b-	8.A-L [8.e-	.
.	[8b-'J	.	.
16AA-Jk) 16E- 16B-	.	16c-Jk) 16e-]	.
=4	=4	=4	=4
([2EE- [2BB- [2F	8b-]	([2B- [2f	.
.	4b-~	.	.
.	[8b-'^	.	.
8EE-L] 8BB-] 8F]	4b-']	8B-L] 8f]	.
8CC-J 8GG- 8D-	.	8G-J 8d-	.
8.DD-L 8.AA- 8.E-	8B-'^L 8b-	8.A-L [8.e-	.
.	[8b-'J	.	.
16AA-Jk) 16E- 16B-	.	16c-Jk) 16e-]	.
=5	=5	=5	=5
1EE- 1BB- 1F	8b-]	1B- 1f	.
.	4b-~	.	.
.	[8b-'^	.	.
.	4b-']	.	.
.	.	.	.
.	[8B-'^L [8b-	.	.
.	8B-'J_ 8b-_	.	.
*clefG2	*	*	*
=6	=6	=6	=6
(8.dd-L	8B-] 8b-]	(8.d-L	p
.	4B-~ 4b-	.	.
16ee-Jk	.	16e-Jk	.
4dd-	.	4d-	.
.	[8B-'^ [8b-	.	.
8ff-XL	4B-'] 4b-]	8f-XL	.
8ee-J	.	8e-J	.
8.ccnL	8B-'^L 8b-	8.cnL	.
.	[8B-'J [8b-	.	.
16ee-Jk	.	[16e-Jk)	.
=7	=7	=7	=7
*^	*	*	*
4ee-	2f-X	8B-] 8b-]	4e-]	.
.	.	4B-~ 4b-	.	.
2.dd-)	.	.	[2d-	.
.	.	[8B-'^ [8b-	.	.
.	2ryy	4B-'] 4b-]	.	.
*	*	*v	*v	*
.	.	[8B-'^L [8b-	.
.	.	8B-'J] 8b-]	.
*v	*v	*	*
=	=	=
*-	*-	*-
!!!system-decoration: {(s1,s2)}
!!!CDT: 1875/03/07-1937/12/28
!!!CBL: Ciboure, France
!!!CDL: Paris, France
!!!CNT: French
!!!AGN: Instrumental; Keyboard
!!!MCN:
!!!MDT: 1909/01/09
!!!MGN:
!!!MLC: Paris, France
!!!MPD: 1909
!!!MPN: Viñes, Ricardo
!!!ODT: 1908
!!!PDT: 1909
!!!excerpt-start-measure: 1
!!!excerpt-end-measure: 7
!!!excerpt-start-time: 0:00
!!!excerpt-end-time: 0:52
!!!EEV: 2020/01/25
!!!ONB: Converted from MusicXML on 2020/01/25
